X: 5890
T: Cam Ye O'er Frae France
R: three-two
M: 3/2
K: Edorian
|:G2E2 E2^D2 E4|GE2 E2G2 FGA2|G2E2 E2^D2 E4|F2D2 D3G F2A2|
E2e2 e2^d2 e4|E2e2 e2f2 g2e2|E2e2 edc2 d3B|A2F2 D2AA B2F2:|

